styles/emoji-one/2734.svg

<svg xmlns="http://www.w3.org/2000/svg" viewBox="0 0 64 64"><path fill="#42464c" d="M38.22 34.576L64 32l-25.78-2.578 16.408-20.05-20.051 16.405L32 0l-2.578 25.777L9.372 9.372l16.405 20.05L0 32l25.777 2.576L9.372 54.628l20.05-16.408L32 64l2.577-25.78 20.051 16.408z"/></svg>

<svg xmlns="http://www.w3.org/2000/svg" viewBox="0 0 64 64" enable-background="new 0 0 64 64"><path fill="#42464c" d="M38.22 34.576 64 32 38.22 29.422 54.628 9.372 34.577 25.777 32 0 29.422 25.777 9.372 9.372 25.777 29.422 0 32 25.777 34.576 9.372 54.628 29.422 38.22 32 64 34.577 38.22 54.628 54.628z"/></svg>
